svgs/light/circle-microphone-lines.svg

<svg xmlns="http://www.w3.org/2000/svg" viewBox="0 0 512 512"><!--! Font Awesome Pro 6.4.0 by @fontawesome - https://fontawesome.com License - https://fontawesome.com/license (Commercial License) Copyright 2023 Fonticons, Inc. --><path d="M256 32a224 224 0 1 1 0 448 224 224 0 1 1 0-448zm0 480A256 256 0 1 0 256 0a256 256 0 1 0 0 512zm0-416c-35.3 0-64 28.7-64 64v96c0 35.3 28.7 64 64 64s64-28.7 64-64V240 176 160c0-35.3-28.7-64-64-64zm32 64H272c-8.8 0-16 7.2-16 16s7.2 16 16 16h16v32H272c-8.8 0-16 7.2-16 16s7.2 16 16 16h16c0 17.7-14.3 32-32 32s-32-14.3-32-32V160c0-17.7 14.3-32 32-32s32 14.3 32 32zM160 240c0-8.8-7.2-16-16-16s-16 7.2-16 16v16c0 65.3 48.9 119.1 112 127v17c0 8.8 7.2 16 16 16s16-7.2 16-16V383c63.1-7.9 112-61.7 112-127V240c0-8.8-7.2-16-16-16s-16 7.2-16 16v16c0 53-43 96-96 96s-96-43-96-96V240z"/></svg>

<svg xmlns="http://www.w3.org/2000/svg" viewBox="0 0 512 512"><!--! Font Awesome Pro 6.3.0 by @fontawesome - https://fontawesome.com License - https://fontawesome.com/license (Commercial License) Copyright 2023 Fonticons, Inc. --><path d="M256 320c35.35 0 64-28.65 64-64V160c0-35.35-28.65-64-64-64S192 124.7 192 160v96C192 291.3 220.7 320 256 320zM224 160c0-17.64 14.36-32 32-32s32 14.36 32 32h-16C263.2 160 256 167.2 256 176S263.2 192 272 192H288v32h-16C263.2 224 256 231.2 256 240S263.2 256 272 256H288c0 17.64-14.36 32-32 32S224 273.6 224 256V160zM368 224C359.2 224 352 231.2 352 239.1V256c0 52.94-43.06 96-96 96S160 308.9 160 256V240C160 231.2 152.8 224 144 224S128 231.2 128 239.1V256c0 65.1 49.03 118.4 112 126.4V400c0 8.844 7.156 16 16 16s16-7.156 16-16v-17.62C334.1 374.4 384 321.1 384 256V239.1C384 231.2 376.8 224 368 224zM256 0C114.6 0 0 114.6 0 256s114.6 256 256 256s256-114.6 256-256S397.4 0 256 0zM256 480c-123.5 0-224-100.5-224-224s100.5-224 224-224s224 100.5 224 224S379.5 480 256 480z"/></svg>
